X:196
T:Fearghal O'Gadhra                                                                                 
M:4/4                                                                                               
L:1/8                                                                                               
K:D                                                                                                 
A,D D2 A,DEA|BFAF EFAB|d2 cA BdAF|GBFB EDB,D|                                                       
A,3 D A,DFA|BFAF EFAB|dcde fdAF|1 GFEG FDB,D :|2 GFEG FDFA ||                                       
fd d2 fdgd|fdgf edBc|decd Bcde|fagf e3 g|                                                           
|1 fd d2 fdgd|fdgf edBc|dB (3cBA BdAF|GFEG FDEA :|                                                  
|2 f2 af edBc|defd BAFD|A,D D2 A,DFA|BFAF D4 |>|
